X: 35744
T: Salamanca Samba
R: reel
M: 4/4
K: Bminor
|:f2ed cdec|dBc^A BcdB|cF^Ac FAce|dBc^A Bcde|
f2ed cdec|dBc^A BcdB|cF^Ac FAce|1 dBc^A B3 g:|2 dBc^A B3 f||
|:g2ed cdeg|f2ef defd|edcB ^ABce|F^Ace dB3|
g2ed cdag|f2ef defd|edcB ^ABce|1 F^Ace d ~B3:|2 F^Ace dB3||
|:FG^AB AGFG|^ABAG FGc2|cdcB ^ABcd|edcB ^AGF2|
FG^AB AGFG|^ABAG FGc2|EFGA BAGF|^ABcB AGF2:|F8-|F2FF .Fz3||

